react_webviews/src/assets/passive.svg

<svg width="32" height="33" viewBox="0 0 32 33" fill="none" xmlns="http://www.w3.org/2000/svg">
<path d="M29.9989 23.1427C30.0001 25.0999 30.0037 27.0558 29.9976 29.013C29.9952 30.1022 29.6214 30.4932 28.6082 30.4932C26.8376 30.4944 25.0658 30.497 23.2953 30.4944C22.3467 30.4919 21.9119 30.0418 21.9119 29.0375C21.907 25.1025 21.907 21.1688 21.9119 17.2338C21.9144 16.2012 22.36 15.7305 23.3281 15.7267C25.0792 15.7202 26.8303 15.7177 28.5802 15.7267C29.5909 15.7305 29.9928 16.1523 29.9964 17.2094C30.0037 19.1872 29.9989 21.1649 29.9989 23.1427Z" fill="#5AAAF6"/>
<path d="M13.2575 10.6646C13.9406 11.4297 14.5799 12.1756 15.2509 12.8893C16.1118 13.8049 15.8877 13.783 16.7146 12.9137C18.9101 10.6054 21.0899 8.28302 23.2952 5.98504C23.6508 5.61598 23.7104 5.36522 23.3049 5.01158C22.8556 4.61809 22.4428 4.18086 22.0141 3.76165C22.0434 3.68449 22.0726 3.60733 22.1018 3.53018C22.6924 3.42987 23.2818 3.33087 23.8712 3.23185C25.2594 2.99781 26.6488 2.76761 28.0358 2.52714C28.3962 2.46542 28.652 2.46928 28.5704 2.9888C28.2647 4.94086 27.9749 6.89678 27.6741 8.85012C27.6522 8.99157 27.5913 9.12531 27.4951 9.43137C27.0568 8.97357 26.6902 8.59422 26.3273 8.21101C25.7319 7.58218 25.7331 7.5809 25.1193 8.22901C22.2662 11.2407 19.4119 14.2537 16.5575 17.2653C16.387 17.4454 16.2104 17.6164 15.9803 17.8479C15.067 16.841 14.1854 15.8701 13.2319 14.8182C10.9304 17.2898 8.72629 19.6585 6.41992 22.1352C5.75869 21.3971 5.18514 20.7888 4.66274 20.1356C4.58967 20.0443 4.70657 19.6688 4.83687 19.5286C6.30788 17.9469 7.79716 16.3857 9.28279 14.8182C10.4214 13.6171 11.5599 12.4148 12.701 11.215C12.8422 11.0658 12.992 10.9269 13.2575 10.6646Z" fill="#5AAAF6"/>
<path d="M12.0029 25.383C12.0017 24.1151 11.998 22.8471 12.0041 21.5792C12.0077 20.6777 12.3792 20.265 13.223 20.2572C15.1166 20.2418 17.009 20.2392 18.9025 20.2444C19.5625 20.2457 20.0204 20.6945 20.0253 21.421C20.046 24.0431 20.0448 26.6651 20.0277 29.2871C20.0228 30.0471 19.5905 30.4818 18.8636 30.4882C16.9505 30.5036 15.0375 30.5049 13.1232 30.4856C12.4011 30.4792 12.0102 30.0253 12.0053 29.2524C11.9968 27.9626 12.0029 26.6728 12.0029 25.383Z" fill="#5AAAF6"/>
<path d="M6.04404 30.4955C5.12831 30.4968 4.21258 30.5033 3.29685 30.4943C2.43957 30.4865 2.01824 30.0493 2.0085 29.1517C1.99876 28.0985 1.99631 27.0454 2.00727 25.9935C2.01701 25.0431 2.47002 24.5609 3.36626 24.5558C5.13562 24.5468 6.9062 24.5442 8.67677 24.5583C9.62416 24.5648 10.0358 25.0277 10.037 26.0346C10.0394 27.0865 10.0443 28.1397 10.037 29.1929C10.0309 30.066 9.62782 30.4865 8.79124 30.493C7.87551 30.502 6.95977 30.4955 6.04404 30.4955Z" fill="#5AAAF6"/>
</svg>

<svg xmlns="http://www.w3.org/2000/svg" width="32" height="33" fill="#5aaaf6" xmlns:v="https://vecta.io/nano"><path d="M29.999 23.143l-.001 5.87c-.002 1.089-.376 1.48-1.389 1.48l-5.313.001c-.949-.002-1.383-.453-1.383-1.457V17.234c.003-1.033.448-1.503 1.416-1.507h5.252c1.011.004 1.413.426 1.416 1.483l.002 5.933zM13.258 10.665l1.993 2.225c.861.916.637.894 1.464.024l6.581-6.929c.356-.369.415-.62.01-.973-.449-.393-.862-.831-1.291-1.25l.088-.231 1.769-.298 4.165-.705c.36-.062.616-.058.535.462l-.896 5.861c-.022.141-.083.275-.179.581l-1.168-1.22c-.595-.629-.594-.63-1.208.018l-8.562 9.036-.577.583-2.748-3.03-6.812 7.317-1.757-2c-.073-.091.044-.467.174-.607l4.446-4.71 3.418-3.603.556-.55zm-1.255 14.718l.001-3.804c.004-.901.375-1.314 1.219-1.322l5.679-.013c.66.001 1.118.45 1.123 1.177l.002 7.866c-.005.76-.437 1.195-1.164 1.201a313.8 313.8 0 0 1-5.74-.003c-.722-.006-1.113-.46-1.118-1.233l-.002-3.869zm-5.959 5.113c-.916.001-1.831.008-2.747-.001-.857-.008-1.279-.445-1.288-1.343l-.001-3.158c.01-.95.463-1.433 1.359-1.438l5.311.002c.947.007 1.359.469 1.36 1.476v3.158c-.006.873-.409 1.294-1.246 1.3l-2.747.003z"/></svg>
